packages/icons/src/SVG/guide-closed.svg

<!-- Generated by IcoMoon.io -->
<svg version="1.1" xmlns="http://www.w3.org/2000/svg" width="12" height="12" viewBox="0 0 12 12">
<title>guide-closed</title>
<path d="M9 4h-3v1h3v-1z"></path>
<path d="M9 6h-3v1h3v-1z"></path>
<path d="M11 12v-11h-9.125v2h-0.875v1h0.875v1h-0.875v1h0.875v1h-0.875v1h0.875v1h-0.875v1h0.875v2h9.125zM3 2h1v9h-1v-9zM5 11v-9h5v9h-5z"></path>
</svg>

<svg width="12" height="12" viewBox="0 0 12 12" fill="none" xmlns="http://www.w3.org/2000/svg">
<path d="M9 4H6V5H9V4Z" fill="#4C505B"/>
<path d="M9 6H6V7H9V6Z" fill="#4C505B"/>
<path fill-rule="evenodd" clip-rule="evenodd" d="M11 12V1H2V3H1V4H2V5H1V6H2V7H1V8H2V9H1V10H2V12H11ZM3 2H4L4 11H3V2ZM5 11L5 2H10V11H5Z" fill="#4C505B"/>
</svg>
